X:920
T: Little Red Rock
T: Charraig\'in Rua (An)
C: B.Tonra
S: B.Breathnach: "Ceol Rince na hEireann" II/283
Z: B.Black
L: 1/8
M: 4/4
R: reel
K: Dmix
fffd (3efg dB|AF F2 ED B2|dBAF DEFA|Beed BAFA|
df f2 (3efg dB|AF F2 ED B2|dBAF DEFA|dBAG FD D2 :|
fa a2 af d2|fa a2 bgaf|g2 gf gbag|faef dB A2|
fb b2 afde|fffd edBA|Bded BAFA|dBAG FD D2 :|

